svgs/thin/jug-detergent.svg

<svg xmlns="http://www.w3.org/2000/svg" viewBox="0 0 384 512"><!--! Font Awesome Pro 6.6.0 by @fontawesome - https://fontawesome.com License - https://fontawesome.com/license (Commercial License) Copyright 2024 Fonticons, Inc. --><path d="M120 16l80 0c4.4 0 8 3.6 8 8l0 56-96 0 0-56c0-4.4 3.6-8 8-8zM96 80L72 80c-4.4 0-8 3.6-8 8s3.6 8 8 8l24 0 16 0 96 0 16 0 24 0c4.4 0 8-3.6 8-8s-3.6-8-8-8l-24 0 0-56c0-13.3-10.7-24-24-24L120 0C106.7 0 96 10.7 96 24l0 56zm160 64c61.9 0 112 50.1 112 112l0 192c0 26.5-21.5 48-48 48L64 496c-26.5 0-48-21.5-48-48l0-192c0-61.9 50.1-112 112-112l128 0zM128 128C57.3 128 0 185.3 0 256L0 448c0 35.3 28.7 64 64 64l256 0c35.3 0 64-28.7 64-64l0-192c0-70.7-57.3-128-128-128l-128 0zm152 80c-22.1 0-40 17.9-40 40l0 80c0 22.1 17.9 40 40 40s40-17.9 40-40l0-80c0-22.1-17.9-40-40-40zm-24 40c0-13.3 10.7-24 24-24s24 10.7 24 24l0 80c0 13.3-10.7 24-24 24s-24-10.7-24-24l0-80z"/></svg>

<svg xmlns="http://www.w3.org/2000/svg" viewBox="0 0 384 512"><!--! Font Awesome Pro 6.4.2 by @fontawesome - https://fontawesome.com License - https://fontawesome.com/license (Commercial License) Copyright 2023 Fonticons, Inc. --><path d="M120 16h80c4.4 0 8 3.6 8 8V80H112V24c0-4.4 3.6-8 8-8zM96 80H72c-4.4 0-8 3.6-8 8s3.6 8 8 8H96h16 96 16 24c4.4 0 8-3.6 8-8s-3.6-8-8-8H224V24c0-13.3-10.7-24-24-24H120C106.7 0 96 10.7 96 24V80zm160 64c61.9 0 112 50.1 112 112V448c0 26.5-21.5 48-48 48H64c-26.5 0-48-21.5-48-48V256c0-61.9 50.1-112 112-112H256zM128 128C57.3 128 0 185.3 0 256V448c0 35.3 28.7 64 64 64H320c35.3 0 64-28.7 64-64V256c0-70.7-57.3-128-128-128H128zm152 80c-22.1 0-40 17.9-40 40v80c0 22.1 17.9 40 40 40s40-17.9 40-40V248c0-22.1-17.9-40-40-40zm-24 40c0-13.3 10.7-24 24-24s24 10.7 24 24v80c0 13.3-10.7 24-24 24s-24-10.7-24-24V248z"/></svg>
